svgs/sharp-light/rectangle-vertical-history.svg

<svg xmlns="http://www.w3.org/2000/svg" viewBox="0 0 576 512"><!--! Font Awesome Pro 6.6.0 by @fontawesome - https://fontawesome.com License - https://fontawesome.com/license (Commercial License) Copyright 2024 Fonticons, Inc. --><path d="M224 32l0 448 320 0 0-448L224 32zM192 0l32 0L544 0l32 0 0 32 0 448 0 32-32 0-320 0-32 0 0-32 0-448 0-32zM96 48l32 0 0 416-32 0L96 48zM0 96l32 0 0 320L0 416 0 96z"/></svg>

<svg xmlns="http://www.w3.org/2000/svg" viewBox="0 0 576 512"><!--! Font Awesome Pro 6.4.0 by @fontawesome - https://fontawesome.com License - https://fontawesome.com/license (Commercial License) Copyright 2023 Fonticons, Inc. --><path d="M224 32V480H544V32H224zM192 0h32H544h32V32 480v32H544 224 192V480 32 0zM96 48h32V464H96V48zM0 96H32V416H0V96z"/></svg>
